X:245
T:O'Carolan's Draught
N:from Richar Robinson's Tunebook
O:Ireland
M:C
K:G
D2| GA Bc de fd|g2fe d2d2|e2E2 d2D2|c2Bc AB cA|
GA Bc de fd|gf ed ^cb ag|gf ed A2^c2|1 d6 D2:|2 d6 fg ||
af ga ba gf|eg fe e^d cB| e^d ef gf ga|ba gf ef ga|
bB bB aB aB|gB gB fB fB|e^d ef gf e=d|e6 f2|
gf ed cB AG|e2d2 d2D2|c2B2 A2G2|FG AF D2z2|
EF GE FG AF|GA BG AB cA|d2g2 ba gf|1 g6 fg:|2 g6 D2 ||
